X:1
T:River Flows In You
T:River Flows In You
T:YIRUMA
C:Yiruma
%%score { 1 | 2 }
L:1/8
Q:1/4=60
M:4/4
K:A
V:1 treble nm="Piano" snm="Pno."
V:2 bass 
V:1
"^\n" z A/c/ |!mp! agag aead- | d6- dA/c/ | agag aead- | d6- dA/c/ | %5
[Q:1/4=70] ag/a/- a/A/g/a/- a/A/e/a/- a/A/d/A/ |{/B} cd[Ae]c [GB]3 A/G/ | A2- A/E/A/B/ c3 c/d/ | %8
 e3 d/c/ B3 A/c/ | ag/a/- a/A/g/a/- a/A/e/a/- a/A/d/A/ |{/B} cdec' be{bc'} ba/g/ | %11
 [ea]3 A/B/ cE Ac/d/ | eE cd/c/ B2 a/b/a/g/ | a/A/e/A/ a/b/a/g/ a/A/e/A/ a/b/a/g/ | %14
 a/b/c'/d'/ e'/c'/b/a/ gB a/b/a/g/ | a/A/e/A/ a/b/a/g/ a/A/e/A/ a/b/a/g/ | %16
 a/b/c'/d'/ e'/c'/b/a/ gB a/a/4b/4a/g/ | a/A/e/A/ a/a/4b/4a/g/ a/A/e/A/ a/a/4b/4a/g/ | %18
 a/b/c'/d'/ e'/c'/b/a/ gB a/a/4b/4a/g/ | a/A/e/A/ a/a/4b/4a/g/ a/A/e/A/ a/b/a/g/ | %20
[M:5/4] a/b/c'/d'/ e'/c'/b/a/ gB G !fermata!E2 A/c/ ||[M:4/4] ag/a/- a/A/g/a/- a/A/e/a/- a/A/d/A/ | %22
{/B} cd[Ae]c [GB]3 A/G/ | ([EA]2 [EA]/)E/A/B/ c/E/A/B/ c/E/c/d/ | e/E/c/d/ e/E/d/c/ B/E/d/c/ BG | %25
{/c} ag/a/- a/A/g/a/- a/A/e/a/- a/A/d/A/ |{/B} cdec' be{bc'} [eb]a/g/ | %27
 [ea]3 A/B/ c/E/A/B/ c/E/c/d/ | e/E/c/d/ e/E/d/c/ B/E/G/B/ a/b/a/g/ | %29
 a/A/e/A/ a/a/4b/4a/g/ a/A/e/A/ a/a/4b/4a/g/ | a/b/c'/d'/ e'/c'/{bc'}b/a/ g/B/e/B/ a/a/4b/4a/g/ | %31
 a/A/e/A/ a/a/4b/4a/g/ a/A/e/A/ a/a/4b/4a/g/ | a/b/c'/d'/ e'/c'/{bc'}b/a/ g/B/e/B/ a/a/4b/4a/g/ | %33
 a/A/e/A/ a/b/a/g/ a/A/e/A/ a/a/4b/4a/g/ | a/b/c'/d'/ e'/c'/b/a/ gB a/a/4b/4a/g/ | %35
 a/A/e/A/ a/a/4b/4a/g/ a/A/e/A/ a/a/4b/4a/g/ | a/b/c'/d'/ e'/c'/b/a/ gBGE | %37
[Q:1/4=60]{Ac} agag [Aca]ead | [Ac]dec B2 AG | !arpeggio![CEA]2 EA/B/ cE Ac/d/ | eE cd/c/ B4 | %41
{Ac} agag !arpeggio![Aea]ead |{/B} cdec' [eb]3 A/G/ | [EA]3 A/B/ cE Ac/d/ | eE Ad/c/ B2 E2 | %45
 AA,CF !fermata![Aa]4 |] %46
V:2
 z2 | F,C F2 D,A, E2- | E8 | F,C F2 D,A, E2- | E8 | F,C F2 D,A,ED, | A,,E, C2 E,B, E2 | %7
 F,C F2 D,A, E2 | A,,E, C2 E,B, G2 | F,C F2 D,A,ED, | A,,E,CA,, E,B, E2 | F,C F2 D,A, E2 | %12
 A,,E, C2 E,B, E2 | F,CFF, D,A,ED, | A,,E,CA,, E,B,EE, | F,CFF, D,A,ED, | A,,E,CA,, E,B,EE, | %17
 F,,C,F,F,, D,A,ED, | A,,E,CA,, E,,B,,G,E,, | F,,C,F,F,, D,A,ED, | %20
[M:5/4] A,,E,CA,,E,,B,, !fermata!G,4 ||[M:4/4] F,C F2 D,A,ED, | A,,E,CA,, E,B, E2 | F, C3 D,A, D2 | %24
 A,,E,CA,, E,B, E2 | F,CFF, D,A,ED, | A,,E,CA,, E,B,EE, | F,C F2 D,A,DD, | A,,E,CA,, E,,B,,G,E,, | %29
 F,,C,FF, D,A,ED, | A,,E,CA,, E,,B,,G,E,, | F,,C,FF, D,A,ED, | A,,E,CA,, E,,B,,G,E,, | %33
 F,,C,FF, D,A,ED, | A,,E,CA,, E,,B,,G,E,, | F,,C,FF, D,A,ED, | A,,E,CA,, E,,B,, G,2 | %37
 [F,C]4 F,DFF, | E,C!8va(! A2 [EG]4!8va)! | F,, C,3 D,A, E2 | A,,E, C2 E,B, E2 | F,C F2 D,A,ED, | %42
 A,,E, C2 E,B, G2 | F,,C, F,2 D,A, D2 | A,,E, C2 E,,B,, G,2 | F,,C, F,2 !fermata!C4 |] %46

